;  Created by Sandify
;  https://sandify.org
;  Version: 0.2.4
;
;  Machine type: Rectangular
;    Min X (mm): 5
;    Max X (mm): 520
;    Min Y (mm): 5
;    Max Y (mm): 325
;  Content type: shape
;  Layer:
;    Shape: Wiper
;    Name: point
;    Type: Lines
;    Wiper size: 11
;    Wiper angle: 15
;    Visible: true
;    X offset: 0
;    Y offset: 0
;    Rotate (degrees): 0
;    Reverse path: false
;    Fine tuning:
;      Connect to next layer: line
;      Draw portion of path (%): 100
;      Backtrack at end (%): 0
;      Rotate starting point (%): 0
;  Reverse export path: false
;
; File name: 'Eraser'
;
; BEGIN PRE
g1 f2000
; END PRE

G01 X5.000 Y5.000
G01 X16.388 Y5.000
G01 X5.000 Y47.501
G01 X5.000 Y90.001
G01 X27.776 Y5.000
G01 X39.164 Y5.000
G01 X5.000 Y132.502
G01 X5.000 Y175.003
G01 X50.552 Y5.000
G01 X61.940 Y5.000
G01 X5.000 Y217.504
G01 X5.000 Y260.004
G01 X73.328 Y5.000
G01 X84.716 Y5.000
G01 X5.000 Y302.505
G01 X5.000 Y325.000
G01 X9.690 Y325.000
G01 X96.104 Y5.000
G01 X107.492 Y5.000
G01 X21.079 Y325.000
G01 X32.467 Y325.000
G01 X118.880 Y5.000
G01 X130.268 Y5.000
G01 X43.855 Y325.000
G01 X55.243 Y325.000
G01 X141.656 Y5.000
G01 X153.044 Y5.000
G01 X66.631 Y325.000
G01 X78.019 Y325.000
G01 X164.433 Y5.000
G01 X175.821 Y5.000
G01 X89.407 Y325.000
G01 X100.795 Y325.000
G01 X187.209 Y5.000
G01 X198.597 Y5.000
G01 X112.183 Y325.000
G01 X123.571 Y325.000
G01 X209.985 Y5.000
G01 X221.373 Y5.000
G01 X134.959 Y325.000
G01 X146.347 Y325.000
G01 X232.761 Y5.000
G01 X244.149 Y5.000
G01 X157.735 Y325.000
G01 X169.123 Y325.000
G01 X255.537 Y5.000
G01 X266.925 Y5.000
G01 X180.511 Y325.000
G01 X191.899 Y325.000
G01 X278.313 Y5.000
G01 X289.701 Y5.000
G01 X203.287 Y325.000
G01 X214.675 Y325.000
G01 X301.089 Y5.000
G01 X312.477 Y5.000
G01 X226.063 Y325.000
G01 X237.451 Y325.000
G01 X323.865 Y5.000
G01 X335.253 Y5.000
G01 X248.839 Y325.000
G01 X260.227 Y325.000
G01 X346.641 Y5.000
G01 X358.029 Y5.000
G01 X271.615 Y325.000
G01 X283.003 Y325.000
G01 X369.417 Y5.000
G01 X380.805 Y5.000
G01 X294.391 Y325.000
G01 X305.779 Y325.000
G01 X392.193 Y5.000
G01 X403.581 Y5.000
G01 X317.168 Y325.000
G01 X328.556 Y325.000
G01 X414.969 Y5.000
G01 X426.357 Y5.000
G01 X339.944 Y325.000
G01 X351.332 Y325.000
G01 X437.745 Y5.000
G01 X449.133 Y5.000
G01 X362.720 Y325.000
G01 X374.108 Y325.000
G01 X460.522 Y5.000
G01 X471.910 Y5.000
G01 X385.496 Y325.000
G01 X396.884 Y325.000
G01 X483.298 Y5.000
G01 X494.686 Y5.000
G01 X408.272 Y325.000
G01 X419.660 Y325.000
G01 X506.074 Y5.000
G01 X517.462 Y5.000
G01 X431.048 Y325.000
G01 X442.436 Y325.000
G01 X520.000 Y37.772
G01 X520.000 Y80.272
G01 X453.824 Y325.000
G01 X465.212 Y325.000
G01 X520.000 Y122.773
G01 X520.000 Y165.274
G01 X476.600 Y325.000
G01 X487.988 Y325.000
G01 X520.000 Y207.775
G01 X520.000 Y250.275
G01 X499.376 Y325.000
G01 X510.764 Y325.000
G01 X520.000 Y292.776

