;  Created by Sandify
;  https://sandify.org
;  Version: 0.2.4
;
;  Machine type: Rectangular
;    Min X (mm): 5
;    Max X (mm): 520
;    Min Y (mm): 5
;    Max Y (mm): 325
;  Content type: machine
;  Reverse export path: false
;
; File name: 'Spiralling Squares'
;
; BEGIN PRE
g1 f2000
; END PRE

G01 X269.571 Y172.071
G01 X253.584 Y173.761
G01 X252.080 Y154.210
G01 X275.194 Y152.954
G01 X276.140 Y179.627
G01 X245.911 Y180.201
G01 X245.772 Y146.421
G01 X283.096 Y146.778
G01 X282.182 Y187.641
G01 X237.787 Y186.107
G01 X240.002 Y138.188
G01 X291.436 Y141.147
G01 X287.673 Y196.086
G01 X229.239 Y191.457
G01 X234.795 Y129.540
G01 X300.184 Y136.084
G01 X292.591 Y204.932
G01 X220.298 Y196.228
G01 X230.172 Y120.504
G01 X309.312 Y131.610
G01 X296.915 Y214.149
G01 X210.992 Y200.400
G01 X226.152 Y111.113
G01 X318.787 Y127.744
G01 X300.625 Y223.707
G01 X201.354 Y203.954
G01 X222.756 Y101.396
G01 X328.580 Y124.506
G01 X303.703 Y233.573
G01 X191.416 Y206.872
G01 X220.000 Y91.388
G01 X338.656 Y121.913
G01 X306.133 Y243.716
G01 X181.209 Y209.137
G01 X217.900 Y81.120
G01 X348.984 Y119.980
G01 X307.899 Y254.101
G01 X170.769 Y210.735
G01 X216.471 Y70.627
G01 X359.528 Y118.720
G01 X308.988 Y264.694
G01 X160.129 Y211.653
G01 X215.725 Y59.942
G01 X370.255 Y118.147
G01 X309.388 Y275.461
G01 X149.325 Y211.879
G01 X215.674 Y49.102
G01 X381.128 Y118.271
G01 X309.088 Y286.365
G01 X138.391 Y211.402
G01 X216.327 Y38.141
G01 X392.113 Y119.102
G01 X308.080 Y297.373
G01 X127.364 Y210.216
G01 X217.693 Y27.097
G01 X403.173 Y120.646
G01 X306.356 Y308.446
G01 X116.280 Y208.312
G01 X219.776 Y16.004
G01 X414.272 Y122.910
G01 X303.911 Y319.548
G01 X105.176 Y205.687
G01 X222.525 Y5.000
G01 X222.748 Y5.000
G01 X425.372 Y125.898
G01 X304.177 Y325.000
G01 X291.653 Y325.000
G01 X94.089 Y202.336
G01 X219.039 Y5.000
G01 X243.426 Y5.000
G01 X436.437 Y129.612
G01 X307.833 Y325.000
G01 X271.965 Y325.000
G01 X83.056 Y198.258
G01 X215.202 Y5.000
G01 X262.220 Y5.000
G01 X447.429 Y134.054
G01 X311.861 Y325.000
G01 X253.981 Y325.000
G01 X72.114 Y193.453
G01 X210.971 Y5.000
G01 X279.468 Y5.000
G01 X458.310 Y139.221
G01 X316.309 Y325.000
G01 X237.402 Y325.000
G01 X61.302 Y187.924
G01 X206.293 Y5.000
G01 X295.438 Y5.000
G01 X469.045 Y145.112
G01 X321.231 Y325.000
G01 X221.988 Y325.000
G01 X50.655 Y181.673
G01 X201.110 Y5.000
G01 X310.343 Y5.000
G01 X479.594 Y151.722
G01 X326.692 Y325.000
G01 X207.547 Y325.000
G01 X40.212 Y174.705
G01 X195.352 Y5.000
G01 X324.360 Y5.000
G01 X489.922 Y159.045
G01 X332.768 Y325.000
G01 X193.919 Y325.000
G01 X30.009 Y167.029
G01 X188.936 Y5.000
G01 X337.632 Y5.000
G01 X499.991 Y167.073
G01 X339.548 Y325.000
G01 X180.972 Y325.000
G01 X20.083 Y158.652
G01 X181.765 Y5.000
G01 X350.281 Y5.000
G01 X509.764 Y175.796
G01 X347.139 Y325.000
G01 X168.596 Y325.000
G01 X10.471 Y149.585
G01 X173.724 Y5.000
G01 X362.408 Y5.000
G01 X519.206 Y185.203
G01 X355.666 Y325.000
G01 X156.696 Y325.000
G01 X5.000 Y144.356
G01 X5.000 Y136.713
G01 X164.672 Y5.000
G01 X374.102 Y5.000
G01 X520.000 Y185.062
G01 X520.000 Y201.872
G01 X365.285 Y325.000
G01 X145.191 Y325.000
G01 X5.000 Y145.640
G01 X5.000 Y119.707
G01 X154.439 Y5.000
G01 X385.436 Y5.000
G01 X520.000 Y183.527
G01 X520.000 Y218.563
G01 X376.183 Y325.000
G01 X134.010 Y325.000
G01 X5.000 Y147.448
G01 X5.000 Y103.305
G01 X142.818 Y5.000
G01 X396.478 Y5.000
G01 X520.000 Y181.421
G01 X520.000 Y234.700
G01 X388.592 Y325.000
G01 X123.093 Y325.000
G01 X5.000 Y149.879
G01 X5.000 Y87.412
G01 X129.550 Y5.000
G01 X407.285 Y5.000
G01 X520.000 Y178.635
G01 X520.000 Y250.371
G01 X402.800 Y325.000
G01 X112.384 Y325.000
G01 X5.000 Y153.055
G01 X5.000 Y71.943
G01 X114.311 Y5.000
G01 X417.909 Y5.000
G01 X520.000 Y175.031
G01 X520.000 Y265.656
G01 X419.173 Y325.000
G01 X101.833 Y325.000
G01 X5.000 Y157.132
G01 X5.000 Y56.825
G01 X96.688 Y5.000
G01 X428.397 Y5.000
G01 X520.000 Y170.431
G01 X520.000 Y280.624
G01 X438.177 Y325.000
G01 X91.397 Y325.000
G01 X5.000 Y162.312
G01 X5.000 Y41.990
G01 X76.150 Y5.000
G01 X438.791 Y5.000
G01 X520.000 Y164.604
G01 X520.000 Y295.341
G01 X460.424 Y325.000
G01 X81.034 Y325.000
G01 X5.000 Y168.861
G01 X5.000 Y27.377
G01 X51.994 Y5.000
G01 X449.132 Y5.000
G01 X520.000 Y157.246
G01 X520.000 Y309.863
G01 X486.722 Y325.000
G01 X70.706 Y325.000
G01 X5.000 Y177.130
G01 X5.000 Y12.932
G01 X23.280 Y5.000
G01 X459.456 Y5.000
G01 X520.000 Y147.945
G01 X520.000 Y324.245
G01 X518.172 Y325.000
G01 X60.378 Y325.000
G01 X5.000 Y187.604
G01 X5.000 Y5.000
G01 X469.797 Y5.000
G01 X520.000 Y136.130
G01 X520.000 Y325.000
G01 X50.015 Y325.000
G01 X5.000 Y200.961
G01 X5.000 Y5.000
G01 X480.189 Y5.000
G01 X520.000 Y120.989
G01 X520.000 Y325.000
G01 X39.586 Y325.000
G01 X5.000 Y218.183
G01 X5.000 Y5.000
G01 X490.664 Y5.000
G01 X520.000 Y101.323
G01 X520.000 Y325.000
G01 X29.058 Y325.000
G01 X5.000 Y240.747
G01 X5.000 Y5.000
G01 X501.253 Y5.000
G01 X520.000 Y75.289
G01 X520.000 Y325.000
G01 X18.400 Y325.000
G01 X5.000 Y270.981
G01 X5.000 Y5.000
G01 X511.987 Y5.000
G01 X520.000 Y39.903
G01 X520.000 Y325.000
G01 X7.581 Y325.000
G01 X5.000 Y312.780

